X:1
T:Adoramus Te, Christe
T:Adoramus Te, Christe
T:Mikolaj Zielenski
T:© 2008 Paul R Marchesano May be freely copied for nonprofit use
T:© 2008 Paul R Marchesano May be freely copied for nonprofit use
T:© 2008 Paul R Marchesano May be freely copied for nonprofit use
T:© 2008 Paul R Marchesano May be freely copied for nonprofit use
T:© 2008 Paul R Marchesano May be freely copied for nonprofit use
C:Mikolaj Zielenski
Z:© 2008 Paul R Marchesano May be freely copied for nonprofit use
%%score [ 1 2 3 4 ]
L:1/8
Q:1/4=68
M:4/4
K:Eb
V:1 treble nm="Soprano" snm="S"
V:2 treble nm="Alto" snm="A"
V:3 treble-8 nm="Tenor" snm="T"
V:4 bass nm="Bass" snm="B"
V:1
 G6 G2 | G4 F3 G | =A6 B2 | =B4 c4- | c2 f2 d3 d | =e2 f2 g2 c2 | c2 f4 B2- | BB e2 c2 d2- | %8
w: A- do-|ra- mus _|_ te,|Chri- ste,|_ et be- ne-|di- ci- mus ti-|bi, et be-|* ne- di- ci- mus|
 d2 c3 =B/=A/ B2 | c8 | z2 d2 e2 d2 | c2 =B2 c2 dd | e3 d cdec | dc c2 c=B/=A/ B2 | c8 | %15
w: _ ti- * * *|bi,|qui- a per|san- ctam cru- cem per|san- ctam cru- * * *|* * cem tu- * * *|am,|
 z2 c2 e2 d2 | c2 B2 GABG | AG G3 F/E/ F2 | G6 g2- | g2 f4 =e2 | f4 g4- | g2 c2 c4 | e6 d2 | %23
w: et pas- si-|o- nem tu- * * *||am re-|* de- mi-|sti mun-|* * dum,|re- de-|
 c4 B4 | A8 | G8 | G2 c2 F2 f2- | f2 =e2 f4 | B2 e2 f4 | e4 d2 d2 | c4 B4 | e3 d c2 BA | %32
w: mi- *|sti|mun-|dum, re- de- mi-|* sti mun-|dum, qui pas-|sus es pro|no- bis,|Do- * * * *|
 cB e2 d2 c2 | B4 z4 | z4 z2 d2 | c2 f3 =e/d/ e2 | f4 z4 | z2 d2 B2 e2- | ed/c/ d2 c3 d/e/ | %39
w: * * * * mi-|ne,|mi-|se- re- * * *|re|mi- se- re-|* * * * re _ _|
 f2 g4 f2 | g3 f ed c2- | c2 fe dc c2- | c=B/=A/ B2 c2 g2 | e2 g3 f ed | cG c4 =B=A | =B8 |] %46
w: _ no- bis,|mi- se- re- * re|_ no- * * * *|* * * * bis, mi-|se- re- * re _|no- * * * *|bis.|
V:2
 D4 D4 | C8 | F6 F2 | G4 G4 | z2 c2 B4- | B2 =A2 G4 | =A4 B2 F2 | G3 F/G/ A4 | G4 z2 G2 | %9
w: A- do-|ra-|mus te,|Chri- ste,|et be-|* ne- di-|* ci- mus|ti- * * *|bi, qui-|
 A2 G2 F2 EF | GABG- GF/E/ F2 | G2 z D E2 D2 | C2 E2 EFGE | A4 G4 | z2 G2 A2 G2 | GF/E/ F2 G4 | %16
w: a per san- * *||ctam per san- ctam|cru- cem tu- * * *|* am,|per san- ctam|cru- * * * *|
 G2 F2 E2 F2 | z2 D2 E2 DC | B,2 E2 D4 | C2 c2 F2 c2- | c2 =B=A B4 | c2 G2 A4 | G6 B2 | A4 G4 | %24
w: cem _ _ _|et pas- si- *|o- nem tu-|am re- de- mi-||sti mun- dum,|re- de-|mi- *|
 C2 F4 F2 | E4 D4 | E4 C4 | B,6 A,2 | G,2 C4 =B,2 | CDEF GA B2 | B2 A2 G4- | G2 E4 D2 | %32
w: sti re- de-|mi- sti|mun- *||dum, qui pas-||sus es pro|_ no- *|
 E2 B,4 =A,2 | B,2 z G A4 | G4 F2 ED | FE A2 B4- | B2 A2 G4 | F4 G3 A | B2 z B G2 c2- | c2 B2 c4 | %40
w: bis, Do- mi-|ne, qui pas-|sus es pro _|_ _ _ no-|* bis, Do-|mi- ne, _|_ mi- se- re-|* * re|
 z2 B4 A2 | E2 A4 G2 | G2 G2 G4 | C4 G3 F | E2 G2 G4- | G2 G2 G4 |] %46
w: mi- se-|re- * re|no- bis, mi-|se- re- *|* * re|_ no- bis.|
V:3
 =B6 B2 | c2 G2 =A3 B | c4 d4- | d4 =e4 | f6 g2- | g2 f4 =e2 | f2 c2 fedc | BG c4 f2- | %8
w: A- do-|ra- * mus _|_ te,|_ Chri-|ste, et|_ be- ne-|di- ci- mus _ _ _|_ _ _ ti-|
 fe ed/c/ d4 | e4 z2 c2 | e2 d2 c2 B2 | GF/E/ F2 G4 | z2 G2 A2 G2 | F2 cc e2 d2 | c2 B2 ABcG | %15
w: |bi, qui-|a per san- ctam|cru- * * * cem|qui- a per|san- ctam per san- ctam|cru- cem tu- * * *|
 c2 c4 B2 | e2 d2 c2 B2 | E2 B2 A4 | G2 c3 =B/=A/ BA/B/ | c2 c2 d2 g2 | f4 d4 | c8 | z2 cd efgf | %23
w: * am, et|pas- si- o- nem|tu- * *|am re- * * * * *|* de- mi- *|sti mun-|dum,|re- * * * * *|
 ec f2 d2 e2- | e2 c4 d2- | dc c3 =B/=A/ B2 | c2 G2 A4 | G4 F4 | G4 F4 | G3 A B2 f2- | fecd ee d2 | %31
w: * * * de- mi-|* sti mun-||dum, qui pas-|sus es|pro no-|bis, _ _ Do-|* * * * * mi- ne,|
 z2 G2 A4 | G4 F4 | G4 c4 | =B2 c3 B/=A/ BB | c4 z4 | z2 c2 B2 e2- | ed/c/ dc/d/ e4 | B4 z2 c2 | %39
w: qui pas-|sus es|pro no-|bis, Do- * * * mi-|ne,|mi- se- re-||re mi-|
 B2 e4 dc | edef gfed | c2 c2 f2 e2 | d3 d e2 ef | gfed c2 G2- | G2 e4 dc | d8 |] %46
w: se- re- re _|no- * * * * * * *|* bis, mi- se-|re- re mi- se- *|re- * * * * re|_ no- * *|bis.|
V:4
 G,6 G,2 | =E,4 F,4- | F,4 D,4 | G,4 C,2 C2 | =A,3 A, B,2 B,2 | C8 | F,4 D,4 | E,2 E,2 F,3 F, | %8
w: A- do-|ra- mus|_ te,|Chri- ste, et|be- ne- di- ci-|mus|ti- *|bi, et be- ne-|
 G,6 G,2 | C,4 A,4 | G,4 z2 D,2 | E,2 D,2 C,2 =B,,2 | C,8 | F,4 z2 G,2 | A,2 G,2 F,2 E,2 | %15
w: di- ci-|mus ti-|bi, qui-|a per san- ctam|cru-|cem per|san- ctam cru- cem|
 A,4 G,4 | z2 D,2 E,2 D,2 | C,2 B,,2 C,2 D,2 | E,3 F, G,4 | =A,3 G,/A,/ =B,2 C2 | D2 D2 G,4 | %21
w: tu- am,|et pas- si-|o- nem tu- *|* * am|re- * * * de-|mi- sti mun-|
 =E,4 F,4 | C,2 C4 G,2 | A,2 G,F, G,3 F,/G,/ | A,4 F,4 | G,8 | C,4 z4 | z4 z2 D,2 | E,4 D,4 | %29
w: dum, re-|de- mi- sti|mun- * * * * *|||dum,|qui|pas- sus|
 C,4 B,,4 | F,4 G,3 F, | E,2 C,2 F,2 F,2 | E,4 z4 | z2 G,2 C,2 F,2- | F,E,/D,/ E,2 F,2 G,2 | %35
w: es pro|no- * *|* bis, Do- mi-|ne,|mi- se- re-|* * * * * re|
 A,4 G,4 | F,4 G,2 E,2 | A,2 B,2 E,4 | z2 G,2 E,2 A,2- | A,2 G,2 A,4 | G,2 E,4 A,2- | A,2 E,4 C,2 | %42
w: no- bis,|mi- se- re-|re no- bis,|mi- se- re-||re no- bis,|_ mi- se-|
 G,4 C,4- | C,8 | C,4 G,4- | G,8 |] %46
w: re- re|_|no- bis.|_|

